X: 53
T: Ghost Dance Song (a)
N: Derived from pawnee53.krn
O: Oklahoma, U.S.A.
N: from Pawnee Music by Frances Densmore, 1926
Z: transcribed to **kern format by David Huron, August 2000
C: Skidi and Chaui Bands, 1919
L: 1/8
M: 2/4
Q: 1/4=88
K: G clef=bass
%%linebreak <none>
B, B, B, A, | 
B, B, B, A, | 
A, A, A, F, | 
A, A, A, F, | 
E, E, E, z | 
A, A, A, F, | 
A, A, A, F, | 
E, E, E, z | 
E, E, E, E, | 
E, E, E, z | 
B, B, B, A, | 
B, B, B, B,[M:3/4] | 
A,2B, B, B, z[M:2/4] | 
A, A, A, F,[M:3/4] | 
A, A, A, F, E, z[M:2/4] | 
A, A, A, F, | 
A, A, A, F, | 
E, E, E, z | 
E, E, E, E, | 
E, E, E, z |]  



